clippy.svg

<svg fill="currentColor" viewBox="0 0 24 24"><path d="M15 15.5a2.5 2.5 0 0 1-2.5 2.5 2.5 2.5 0 0 1-2.5-2.5v-1.75a.75.75 0 0 1 .75-.75.75.75 0 0 1 .75.75v1.75a1 1 0 0 0 1 1 1 1 0 0 0 1-1v-3.61c-.87-.28-1.5-1.02-1.5-1.89 0-1.1 1-2 2.25-2s2.25.9 2.25 2c0 .87-.63 1.61-1.5 1.89zM8.25 8c1.25 0 2.25.9 2.25 2 0 .87-.63 1.61-1.5 1.89v5.36a3.25 3.25 0 0 0 3.25 3.25 3.25 3.25 0 0 0 3.25-3.25v-3.5a.75.75 0 0 1 .75-.75.75.75 0 0 1 .75.75v3.5A4.75 4.75 0 0 1 12.25 22a4.75 4.75 0 0 1-4.75-4.75v-5.36C6.63 11.61 6 10.87 6 10c0-1.1 1-2 2.25-2m1.81-1.87-.43 1.46c-.41-.22-.88-.34-1.38-.34-.91 0-1.72.4-2.22 1.02l-1.2-.9C5.46 6.57 6.41 6 7.5 5.81v-.06A3.75 3.75 0 0 1 11.25 2 3.75 3.75 0 0 1 15 5.75v.06c1.09.19 2.04.76 2.67 1.56l-1.2.9c-.5-.62-1.31-1.02-2.22-1.02-.5 0-.97.12-1.38.34l-.43-1.46c.33-.13.69-.26 1.06-.32v-.06c0-1.25-1-2.25-2.25-2.25S9 4.5 9 5.75v.06c.37.06.73.19 1.06.32m4.19 3.12c-.55 0-1 .34-1 .75s.45.75 1 .75 1-.34 1-.75-.45-.75-1-.75m-6 0c-.55 0-1 .34-1 .75s.45.75 1 .75 1-.34 1-.75-.45-.75-1-.75"/></svg>

<svg  viewBox="0 0 24 24" fill="currentColor"><path  d="M15,15.5A2.5,2.5 0 0,1 12.5,18A2.5,2.5 0 0,1 10,15.5V13.75A0.75,0.75 0 0,1 10.75,13A0.75,0.75 0 0,1 11.5,13.75V15.5A1,1 0 0,0 12.5,16.5A1,1 0 0,0 13.5,15.5V11.89C12.63,11.61 12,10.87 12,10C12,8.9 13,8 14.25,8C15.5,8 16.5,8.9 16.5,10C16.5,10.87 15.87,11.61 15,11.89V15.5M8.25,8C9.5,8 10.5,8.9 10.5,10C10.5,10.87 9.87,11.61 9,11.89V17.25A3.25,3.25 0 0,0 12.25,20.5A3.25,3.25 0 0,0 15.5,17.25V13.75A0.75,0.75 0 0,1 16.25,13A0.75,0.75 0 0,1 17,13.75V17.25A4.75,4.75 0 0,1 12.25,22A4.75,4.75 0 0,1 7.5,17.25V11.89C6.63,11.61 6,10.87 6,10C6,8.9 7,8 8.25,8M10.06,6.13L9.63,7.59C9.22,7.37 8.75,7.25 8.25,7.25C7.34,7.25 6.53,7.65 6.03,8.27L4.83,7.37C5.46,6.57 6.41,6 7.5,5.81V5.75A3.75,3.75 0 0,1 11.25,2A3.75,3.75 0 0,1 15,5.75V5.81C16.09,6 17.04,6.57 17.67,7.37L16.47,8.27C15.97,7.65 15.16,7.25 14.25,7.25C13.75,7.25 13.28,7.37 12.87,7.59L12.44,6.13C12.77,6 13.13,5.87 13.5,5.81V5.75C13.5,4.5 12.5,3.5 11.25,3.5C10,3.5 9,4.5 9,5.75V5.81C9.37,5.87 9.73,6 10.06,6.13M14.25,9.25C13.7,9.25 13.25,9.59 13.25,10C13.25,10.41 13.7,10.75 14.25,10.75C14.8,10.75 15.25,10.41 15.25,10C15.25,9.59 14.8,9.25 14.25,9.25M8.25,9.25C7.7,9.25 7.25,9.59 7.25,10C7.25,10.41 7.7,10.75 8.25,10.75C8.8,10.75 9.25,10.41 9.25,10C9.25,9.59 8.8,9.25 8.25,9.25Z"/></svg>
